X:143
T:Quarrelsome Piper, The
R:hornpipe
Z:id:hn-hornpipe-143
M:C|
L:1/8
K:G
(3DEF | (3GAG (3FGF (3EFE D2 | BAGB AGEF | GBdg ecAF | Ggfe (3ded (3cBA |
(3GAG (3FGF (3EFE D2 | BAGB AGEF | GBdg ecAF | GBAF G2 :|
|: (3Bcd | eB~B2 gB~B2 | eBgB eB~B2 | dA~A2 fA~A2 | dgfe (3ded (3cBA |
(3GAG (3FGF (3EFE D2 | BAGB AGEF | GBdg ecAF | GBAF G2 :| 

